img/search.svg

<svg width="13" height="13" viewBox="0 0 13 13" fill="none" xmlns="http://www.w3.org/2000/svg">
<rect width="13" height="13" fill="#E5E5E5"/>
<rect width="1440" height="3080" transform="translate(-761 -53)" fill="white"/>
<rect x="-761" y="-53" width="1440" height="120" fill="white"/>
<rect x="-311" y="-13" width="350" height="40" rx="6" fill="#F5FAFE"/>
<path d="M-26 -13H33C36.3137 -13 39 -10.3137 39 -7V21C39 24.3137 36.3137 27 33 27H-26V-13Z" fill="#EC1F46"/>
<path fill-rule="evenodd" clip-rule="evenodd" d="M6.33325 1.66668C3.75592 1.66668 1.66659 3.75601 1.66659 6.33334C1.66659 8.91067 3.75592 11 6.33325 11C8.91058 11 10.9999 8.91067 10.9999 6.33334C10.9999 3.75601 8.91058 1.66668 6.33325 1.66668ZM0.333252 6.33334C0.333252 3.01963 3.01954 0.333344 6.33325 0.333344C9.64696 0.333344 12.3333 3.01963 12.3333 6.33334C12.3333 9.64705 9.64696 12.3333 6.33325 12.3333C3.01954 12.3333 0.333252 9.64705 0.333252 6.33334Z" fill="white"/>
<path fill-rule="evenodd" clip-rule="evenodd" d="M9.62861 9.62858C9.88896 9.36823 10.3111 9.36823 10.5714 9.62858L13.4714 12.5286C13.7318 12.7889 13.7318 13.211 13.4714 13.4714C13.2111 13.7317 12.789 13.7317 12.5286 13.4714L9.62861 10.5714C9.36826 10.311 9.36826 9.88893 9.62861 9.62858Z" fill="white"/>
</svg>

<svg width="13" height="13" fill="none" xmlns="http://www.w3.org/2000/svg"><path fill="#E5E5E5" d="M0 0h13v13H0z"/><path fill="#fff" d="M-761-53H679v3080H-761z"/><path fill="#fff" d="M-761-53H679V67H-761z"/><rect x="-311" y="-13" width="350" height="40" rx="6" fill="#F5FAFE"/><path d="M-26-13h59a6 6 0 0 1 6 6v28a6 6 0 0 1-6 6h-59v-40z" fill="#EC1F46"/><path fill-rule="evenodd" clip-rule="evenodd" d="M6.333 1.667a4.667 4.667 0 1 0 0 9.333 4.667 4.667 0 0 0 0-9.333zm-6 4.666a6 6 0 1 1 12 0 6 6 0 0 1-12 0z" fill="#fff"/><path fill-rule="evenodd" clip-rule="evenodd" d="M9.629 9.629c.26-.26.682-.26.942 0l2.9 2.9a.667.667 0 1 1-.942.942l-2.9-2.9a.667.667 0 0 1 0-.942z" fill="#fff"/></svg>
